X:1
T:Night Herding Song
M:3/4
L:1/4
K:G
 z2 G| G2 D| D F A| G2 D/2D/2| D2 B| B2 A/2G/2| G2 G/2B/2| B2 G/2G/2|\
 G2 G| G2 E/2E/2| E/4 E3/4 z G| G2 D/2D/2| D2 B| B A G| G/2G/2 A B|\
 B3-| B z B| B3| E/4 E3/4- E G| G3-| G z2|
